app/dist/common/images/american-realty-investors.svg

<svg height="18" viewBox="0 0 18 18" width="18" xmlns="http://www.w3.org/2000/svg"><path d="m0 0h18v18h-18z" fill="#f0f3fa"/><g fill="#004b8d"><path d="m7 13h4v1h-4zm3.65-.33h-.89l.45-4.34zm-2.06 0h.88l-.44-5zm-1.18 0h.88l-.14-6.5a6.84 6.84 0 0 0 -4.7 2.5 6.97 6.97 0 0 1 4.4-1.84z"/><path d="m9.62 4c-2.24 0-5 1.67-6.62 3.33 2.06-1.33 5-2.33 6.62-2.33 1.9 0 2.2.83 2.2 1.33s-.44 1-1.03 1c-.58 0-.73-.33-.73-.66 0-.34.15-.5.3-.5.14 0 .29.1.29.33s-.2.28-.3.33c.15 0 .44-.1.44-.5s-.39-.5-.58-.5c-.6 0-.74.5-.74.84 0 .93.98 1.33 1.47 1.33 1.62 0 2.06-1.17 2.06-1.83 0-.67-.59-2.17-3.38-2.17z"/></g></svg>

<!-- by TradingView --><svg width="18" height="18" viewBox="0 0 18 18" xmlns="http://www.w3.org/2000/svg"><path fill="#F0F3FA" d="M0 0h18v18H0z"/><path fill="#004B8D" d="M7 13h4v1H7zM10.65 12.67h-.89l.45-4.34.44 4.34ZM8.59 12.67h.88l-.44-5-.44 5ZM7.41 12.67h.88l-.14-6.5a6.84 6.84 0 0 0-4.7 2.5 6.97 6.97 0 0 1 4.4-1.84l-.44 5.84Z"/><path d="M9.62 4C7.38 4 4.62 5.67 3 7.33 5.06 6 8 5 9.62 5c1.9 0 2.2.83 2.2 1.33 0 .5-.44 1-1.03 1-.58 0-.73-.33-.73-.66 0-.34.15-.5.3-.5.14 0 .29.1.29.33s-.2.28-.3.33c.15 0 .44-.1.44-.5s-.39-.5-.58-.5c-.6 0-.74.5-.74.84 0 .93.98 1.33 1.47 1.33C12.56 8 13 6.83 13 6.17 13 5.5 12.41 4 9.62 4Z" fill="#004B8D"/></svg>
